X: 1
T: The Cliff Hornpipe
C: James Hill
M: 4/4
L: 1/8
R: hornpipe
K: Fmaj
AG|FAcA GBdB|cAfc afcA|Bdgb Acfa|(3gaf (3efd (3cdB (3ABG|
FAcA GBdB|cAfc afcA|Bdgb (3agf (3gfe|f2a2 f2:|
|:ef|gc (3ccc gcac|gcc=B c2ga|_bgaf gefa|(3gaf (3efd (3cdB (3ABG|
FAcA GBdB|cAfc afcA|Bdgb (3agf (3gfe|f2a2 f2:|
